img/doc_cover.svg

<svg width="1920" height="720" viewBox="0 0 1920 720" fill="none" xmlns="http://www.w3.org/2000/svg"><g clip-path="url(#clip0)"><path d="M1920 0H0v720h1920V0z" fill="#000"/><path d="M100.3 484.3H17.5v23.6h82.8v-23.6zm0 28.1H76.7v63.4h23.6v-63.4zM888.7 29.1h-27.1v197.7h27.1V29.1zM264 436v-20H121v20h143z" fill="#232323"/><path d="M1774.2 184.15h10.68v77.75h-10.68v-77.75z" fill="#fff"/><path d="M1320.4 118h21.3v5.7h-21.3V118zm-22.9 48h44.3v5.7h-44.3V166zm22.9 48.3h21.3v5.7h-21.3v-5.7zM702.5 106.1V86.4h5.2v19.7h-5.2zm44.4 21.2v-41h5.3v41h-5.3zm44.7-21.2V86.4h5.2v19.7h-5.2zm371.7 233.7h-19.7v30h19.7v-30zm63.4-32.3H1207v62.3h19.7v-62.3zm62.9 32.3h-19.7v30h19.7v-30z" fill="#232323"/><path d="M1570.6 56.8h-44v28.9h44V56.8z" fill="#fff"/><path d="M1618 149.7h-91.4v28.9h91.4v-28.9zm-47.4 92.2h-44v28.9h44v-28.9zm-302.2 394.3h-38.9v13.7h38.9v-13.7zm-1.2-34.6l-2.8-3.4-6-7.2-41.4 34.7 8.9 10.5 41.3-34.6zm116.2-303.2l60.6-49.5-4.6-5-60.4 49.3 4.4 5.2zm68.6-7.1h-56.4v7.1h56.4v-7.1zm103.1 134.3h22.3v-6.8c-.2-20.4 17.9-38.5 38.5-38.5h6.7v-22.6h-6.7c-33-.3-61.2 28.1-60.9 61.2l.1 6.7zm99.3-67.8v22.6h6.8c20.6-.2 38.6 17.8 38.4 38.5v6.8h22.4V419c.3-33.1-28-61.5-60.9-61.2h-6.7zM567.2 522.202v15.3h4.7c14-.1 26.5 12.3 26.5 26.4v4.6h15.5v-4.6c.2-22.7-19.3-42.1-42.1-41.9l-4.6.2zm46.6 68.299h-15.6v4.7c.1 14.2-12.2 26.501-26.5 26.401H567v15.399h4.6c22.8.2 42.3-19.199 42.1-41.899v-4.601h.1zM542.9 93.9H469v18.7h73.9V93.9zm3.3 101.3l-4.5 4.2-.3.3c-4.8 4.6-10.5 8.3-16.8 10.7h-.2l-.6.2c-6.1 2.2-12.5 3.3-18.9 3.4h-.2c-6.2-.1-12.4-1.2-18.3-3.1l-.5-.1.2.1c-5.8-2.4-11.2-5.6-16.1-9.5l-3.9-3.1-13 13.1 4.5 3.9c13.2 11.3 30 17.5 47.4 17.5 18-.1 35.4-6.8 49-18.7l3.9-3.5-11.7-15.4zm605.1 359.6h-59.9V570h59.9v-15.2zm-62.5-67l3.6-3.4.2-.2c3.9-3.7 8.5-6.7 13.6-8.6h.2l.5-.2c4.9-1.8 10.1-2.7 15.3-2.8h.1c5 .1 10.1 1 14.8 2.5l.4.1-.2-.1c4.7 1.9 9.1 4.5 13 7.7l3.2 2.5 10.5-10.6-3.6-3.2c-10.7-9.1-24.3-14.1-38.4-14.2-14.6.1-28.7 5.5-39.7 15.1l-3.1 2.8 9.6 12.6zm-307.3 13.3H747v136.3h34.5V501.1zm152.4-6l7.7 8.2.5.5c8.5 8.9 15.2 19.4 19.7 31v.3l.3 1.1c4 11.2 6.1 23 6.3 34.9v.3c-.2 11.5-2.2 22.9-5.8 33.8l-.3.8.2-.4c-4.4 10.7-10.3 20.6-17.5 29.6l-5.7 7.2 24.1 23.9 7.2-8.3c20.8-24.4 32.2-55.3 32.3-87.4-.3-33.3-12.5-65.4-34.5-90.4L962 473l-28.1 22.1zm-98-150.9v-11.4l-3.7.2c-13.5.8-24.7 12.5-24.7 26s11.3 25.3 24.8 25.9l3.6.1v-11.3l-3.3-.2c-7.6-.6-13.4-6.9-13.6-14.5.2-7.6 6-13.9 13.6-14.6l3.3-.2zm-16.6 46.2h-11.5v3.4c-.1 13.8 11.9 25.8 25.9 25.8 13.2 0 24.5-10.5 26-24.4l.4-3.8h-11.8l-.2 3.3c-.5 8-7.4 14-15.3 13.5-7.6-.5-13.5-6.7-13.5-14.3v-3.5zM474.7 455v-26l-8.4.5c-30.9 1.8-56.3 28.5-56.3 59.2 0 30.7 25.7 57.7 56.4 58.9l8.3.3v-25.8l-7.5-.5c-17.2-1.5-30.6-15.7-30.9-32.9.4-17.4 13.8-31.7 31.1-33.3l7.3-.4zM207 231.424V291.3l19.345-1.151C297.505 286.003 356 224.515 356 153.815S296.815 20.935 226.115 18.172L207 17.482v59.415l17.272 1.151c39.611 3.455 70.47 36.156 71.161 75.767-.921 40.071-31.781 73.003-71.621 76.688l-16.812.921zM1409 441.6V406l-11.5.7c-42.3 2.5-77.2 39-77.2 81.1 0 42.1 35.2 79.1 77.4 80.8l11.3.5v-35.4l-10.3-.6c-23.6-2-41.9-21.5-42.4-45.2.5-23.8 18.9-43.5 42.6-45.7l10.1-.6zM1094.2 63.2h-34.7v10.2c-.5 51.9 42.8 96.1 94 96.1s94.1-44.1 93.8-96.1V63.2h-34.9v10.4c.3 32.9-27.1 61.3-59 61.3s-59.7-28.2-59.3-61.3l.1-10.4zM677.5 206c-29.046 0-53.5 24.689-53.5 53.968v5.997h20.004v-5.997c0-18.364 15.46-34.011 33.496-34.011s33.496 15.741 33.496 34.011v5.997H731v-5.997C731 230.689 706.546 206 677.5 206zm-33.449 89.104H624v5.997c0 29.373 24.454 53.968 53.5 53.968s53.5-24.642 53.5-53.968v-5.997h-20.004v5.997c0 18.364-15.46 34.105-33.496 34.105s-33.496-15.741-33.496-34.105v-5.997h.047zm351.777-45.275l-43.546 37.857 8.595 9.886 43.543-37.857-8.592-9.886zm-34.907 50.261l-8.595 9.887 43.546 37.857 8.598-9.887-43.549-37.857z" fill="#232323"/><path d="M164.902 603.216l-8.453 7.348 32.346 37.207 8.453-7.349-32.346-37.206zm66.692.01l-32.346 37.207 8.453 7.348 32.345-37.207-8.452-7.348zM1864.1 548.4H1846v72.2h18.1v-72.2zm0 75.5h-88.6V642h88.6v-18.1z" fill="#fff"/><path d="M372.9 576H301v7.3h71.9V576zm12.4 0h-7.7v88.2h7.7V576zm1123 2.2h-18.6v27.7h18.6v-27.7zm69-47.1h-38.5v18.2h38.5v-18.2zm48.2 47.1h-18.6v27.7h18.6v-27.7zM151 183.01l-56.328-47.268-10.23 12.189 56.329 47.269L151 183.01zm-69.086 11.182V77.909H66.001v116.283h15.913z" fill="#232323"/></g><defs><clipPath id="clip0"><path fill="#fff" d="M0 0h1920v720H0z"/></clipPath></defs></svg>

<svg width="1920" height="720" viewBox="0 0 1920 720" fill="none" xmlns="http://www.w3.org/2000/svg">
<g clip-path="url(#clip0)">
<path d="M1920 0H0V720H1920V0Z" fill="black"/>
<path d="M100.3 484.3H17.5V507.9H100.3V484.3Z" fill="#232323"/>
<path d="M100.3 512.4H76.7002V575.8H100.3V512.4Z" fill="#232323"/>
<path d="M888.7 29.1001H861.6V226.8H888.7V29.1001Z" fill="#232323"/>
<path d="M264 436L264 416L121 416L121 436L264 436Z" fill="#232323"/>
<path d="M1774.2 184.15H1784.88V261.9H1774.2V184.15Z" fill="white"/>
<path d="M1320.4 118H1341.7V123.7H1320.4V118ZM1297.5 166H1341.8V171.7H1297.5V166ZM1320.4 214.3H1341.7V220H1320.4V214.3Z" fill="#232323"/>
<path d="M702.5 106.1V86.4H707.7V106.1H702.5ZM746.9 127.3V86.3H752.2V127.3H746.9ZM791.6 106.1V86.4H796.8V106.1H791.6Z" fill="#232323"/>
<path d="M1163.3 339.8H1143.6V369.8H1163.3V339.8Z" fill="#232323"/>
<path d="M1226.7 307.5H1207V369.8H1226.7V307.5Z" fill="#232323"/>
<path d="M1289.6 339.8H1269.9V369.8H1289.6V339.8Z" fill="#232323"/>
<path d="M1570.6 56.8H1526.6V85.7H1570.6V56.8Z" fill="white"/>
<path d="M1618 149.7H1526.6V178.6H1618V149.7Z" fill="#232323"/>
<path d="M1570.6 241.9H1526.6V270.8H1570.6V241.9Z" fill="#232323"/>
<path d="M1268.4 636.2H1229.5V649.9H1268.4V636.2Z" fill="#232323"/>
<path d="M1267.2 601.6L1264.4 598.2L1258.4 591L1217 625.7L1225.9 636.2L1267.2 601.6Z" fill="#232323"/>
<path d="M1383.4 298.4L1444 248.9L1439.4 243.9L1379 293.2L1383.4 298.4Z" fill="#232323"/>
<path d="M1452 291.3H1395.6V298.4H1452V291.3Z" fill="#232323"/>
<path d="M1555.1 425.6H1577.4V418.8C1577.2 398.4 1595.3 380.3 1615.9 380.3H1622.6V357.7H1615.9C1582.9 357.4 1554.7 385.8 1555 418.9L1555.1 425.6Z" fill="#232323"/>
<path d="M1654.4 357.8V380.4H1661.2C1681.8 380.2 1699.8 398.2 1699.6 418.9V425.7H1722V419C1722.3 385.9 1694 357.5 1661.1 357.8H1654.4Z" fill="#232323"/>
<path d="M567.2 522.202V537.502H571.9C585.9 537.402 598.4 549.802 598.4 563.902V568.502H613.9V563.902C614.1 541.202 594.6 521.802 571.8 522.002L567.2 522.202Z" fill="#232323"/>
<path d="M613.8 590.501H598.2V595.201C598.3 609.401 586 621.702 571.7 621.602H567V637.001H571.6C594.4 637.201 613.9 617.802 613.7 595.102V590.501H613.8Z" fill="#232323"/>
<path d="M542.9 93.8999H469V112.6H542.9V93.8999Z" fill="#232323"/>
<path d="M546.2 195.2L541.7 199.4L541.4 199.7C536.6 204.3 530.9 208 524.6 210.4H524.4L523.8 210.6C517.7 212.8 511.3 213.9 504.9 214H504.7C498.5 213.9 492.3 212.8 486.4 210.9L485.9 210.8L486.1 210.9C480.3 208.5 474.9 205.3 470 201.4L466.1 198.3L453.1 211.4L457.6 215.3C470.8 226.6 487.6 232.8 505 232.8C523 232.7 540.4 226 554 214.1L557.9 210.6L546.2 195.2Z" fill="#232323"/>
<path d="M1151.3 554.8H1091.4V570H1151.3V554.8Z" fill="#232323"/>
<path d="M1088.8 487.8L1092.4 484.4L1092.6 484.2C1096.5 480.5 1101.1 477.5 1106.2 475.6H1106.4L1106.9 475.4C1111.8 473.6 1117 472.7 1122.2 472.6H1122.3C1127.3 472.7 1132.4 473.6 1137.1 475.1L1137.5 475.2L1137.3 475.1C1142 477 1146.4 479.6 1150.3 482.8L1153.5 485.3L1164 474.7L1160.4 471.5C1149.7 462.4 1136.1 457.4 1122 457.3C1107.4 457.4 1093.3 462.8 1082.3 472.4L1079.2 475.2L1088.8 487.8Z" fill="#232323"/>
<path d="M781.5 501.1H747V637.4H781.5V501.1Z" fill="#232323"/>
<path d="M933.9 495.1L941.6 503.3L942.1 503.8C950.6 512.7 957.3 523.2 961.8 534.8V535.1L962.1 536.2C966.1 547.4 968.2 559.2 968.4 571.1V571.4C968.2 582.9 966.2 594.3 962.6 605.2L962.3 606L962.5 605.6C958.1 616.3 952.2 626.2 945 635.2L939.3 642.4L963.4 666.3L970.6 658C991.4 633.6 1002.8 602.7 1002.9 570.6C1002.6 537.3 990.4 505.2 968.4 480.2L962 473L933.9 495.1Z" fill="#232323"/>
<path d="M835.9 344.2V332.8L832.2 333C818.7 333.8 807.5 345.5 807.5 359C807.5 372.5 818.8 384.3 832.3 384.9L835.9 385V373.7L832.6 373.5C825 372.9 819.2 366.6 819 359C819.2 351.4 825 345.1 832.6 344.4L835.9 344.2Z" fill="#232323"/>
<path d="M819.3 390.4H807.8V393.8C807.7 407.6 819.7 419.6 833.7 419.6C846.9 419.6 858.2 409.1 859.7 395.2L860.1 391.4H848.3L848.1 394.7C847.6 402.7 840.7 408.7 832.8 408.2C825.2 407.7 819.3 401.5 819.3 393.9V390.4Z" fill="#232323"/>
<path d="M474.7 455V429L466.3 429.5C435.4 431.3 410 458 410 488.7C410 519.4 435.7 546.4 466.4 547.6L474.7 547.9V522.1L467.2 521.6C450 520.1 436.6 505.9 436.3 488.7C436.7 471.3 450.1 457 467.4 455.4L474.7 455Z" fill="#232323"/>
<path d="M207 231.424L207 291.3L226.345 290.149C297.505 286.003 356 224.515 356 153.815C356 83.1149 296.815 20.9357 226.115 18.1721L207 17.4813L207 76.8969L224.272 78.0484C263.883 81.5028 294.742 114.204 295.433 153.815C294.512 193.886 263.652 226.818 223.812 230.503L207 231.424Z" fill="#232323"/>
<path d="M1409 441.6V406L1397.5 406.7C1355.2 409.2 1320.3 445.7 1320.3 487.8C1320.3 529.9 1355.5 566.9 1397.7 568.6L1409 569.1V533.7L1398.7 533.1C1375.1 531.1 1356.8 511.6 1356.3 487.9C1356.8 464.1 1375.2 444.4 1398.9 442.2L1409 441.6Z" fill="#232323"/>
<path d="M1094.2 63.2H1059.5V73.4C1059 125.3 1102.3 169.5 1153.5 169.5C1204.7 169.5 1247.6 125.4 1247.3 73.4V63.2H1212.4V73.5999C1212.7 106.5 1185.3 134.9 1153.4 134.9C1121.5 134.9 1093.7 106.7 1094.1 73.5999L1094.2 63.2Z" fill="#232323"/>
<path d="M677.5 206C648.454 206 624 230.689 624 259.968V265.965H644.004V259.968C644.004 241.604 659.464 225.957 677.5 225.957C695.536 225.957 710.996 241.698 710.996 259.968V265.965H731V259.968C731 230.689 706.546 206 677.5 206Z" fill="#232323"/>
<path d="M644.051 295.104H624V301.101C624 330.474 648.454 355.069 677.5 355.069C706.546 355.069 731 330.427 731 301.101V295.104H710.996V301.101C710.996 319.465 695.536 335.206 677.5 335.206C659.464 335.206 644.004 319.465 644.004 301.101V295.104H644.051Z" fill="#232323"/>
<path d="M995.828 249.829L952.282 287.686L960.877 297.572L1004.42 259.715L995.828 249.829Z" fill="#232323"/>
<path d="M960.921 300.09L952.326 309.977L995.872 347.834L1004.47 337.947L960.921 300.09Z" fill="#232323"/>
<path d="M164.902 603.216L156.449 610.564L188.795 647.771L197.248 640.422L164.902 603.216Z" fill="white"/>
<path d="M231.594 603.226L199.248 640.433L207.701 647.781L240.046 610.574L231.594 603.226Z" fill="white"/>
<path d="M1864.1 548.4H1846V620.6H1864.1V548.4Z" fill="white"/>
<path d="M1864.1 623.9H1775.5V642H1864.1V623.9Z" fill="white"/>
<path d="M372.9 576H301V583.3H372.9V576Z" fill="#232323"/>
<path d="M385.3 576H377.6V664.2H385.3V576Z" fill="#232323"/>
<path d="M1508.3 578.2H1489.7V605.9H1508.3V578.2Z" fill="#232323"/>
<path d="M1577.3 531.1H1538.8V549.3H1577.3V531.1Z" fill="#232323"/>
<path d="M1625.5 578.2H1606.9V605.9H1625.5V578.2Z" fill="#232323"/>
<path d="M151 183.01L94.6719 135.742L84.4427 147.931L140.771 195.2L151 183.01Z" fill="#232323"/>
<path d="M81.9141 194.192L81.9141 77.9089L66.0005 77.9089L66.0005 194.192L81.9141 194.192Z" fill="#232323"/>
</g>
<defs>
<clipPath id="clip0">
<rect width="1920" height="720" fill="white"/>
</clipPath>
</defs>
</svg>
